X:236
T:Blossom and the Rain
C:Brian Peters
M:3/4
L:1/8
K:G
E3 F GA | (3BcB A2 B2 | g3 f ed | G6 |
A3 B (3cBA | fA eG dF | e3 f ge | B6 |
E3 F GA | (3BcB A2 B2 | g3 f ed | G6 |
A3 B cA | F D3 FG | E6- | E6 |
e3 e e2 | g3 f e2 | d3 B dB | g6 |
f3 f f2 | (3fgf e2 d2 | e3 f ge | B6 |
e3 e e2 | g3 f e2 | d3 B dB | b6 |
a3 g f2 | fg- g2 fd | e2 Be Ge | E6 ||
